X: 7
T: The Boys Of The Lough
R: reel
M: 4/4
L: 1/8
K: Dmaj
|:AF F2 A3B|defd efdB|AF F2 BFAF|E3D EGFE|
|AF F2 A3B|defd efdB|AF F2 BFAF|1 EDEF D2 dB:|2 EDEF D2 de|
|:faag f3e|defd efdB|AF F2 BFAF|EDEF E3g|
|faag f3e|defd efdB|AF F2 (3Bcd AF|1 EDEF D2 de:|2 EDEF D2 dB|


Tune 343	Setting 13138

